img/svg/rate.svg

<svg xmlns="http://www.w3.org/2000/svg" viewBox="0 0 44 36" enable-background="new 0 0 44 36"><path fill-rule="evenodd" clip-rule="evenodd" d="M7 22h-6c-.6 0-1 .4-1 1v12c0 .6.4 1 1 1h6c.6 0 1-.4 1-1v-12c0-.6-.4-1-1-1zm-1 12h-4v-10h4v10zm13-25h-6c-.6 0-1 .4-1 1v25c0 .6.4 1 1 1h6c.6 0 1-.4 1-1v-25c0-.6-.4-1-1-1zm-1 25h-4v-23h4v23zm13-18h-6c-.6 0-1 .4-1 1v18c0 .6.4 1 1 1h6c.6 0 1-.4 1-1v-18c0-.6-.4-1-1-1zm-1 18h-4v-16h4v16z" enable-background="new"/><path fill-rule="evenodd" clip-rule="evenodd" fill="#44B6F0" d="M43 0h-6c-.6 0-1 .4-1 1v34c0 .6.4 1 1 1h6c.6 0 1-.4 1-1v-34c0-.6-.4-1-1-1zm-1 34h-4v-32h4v32z" enable-background="new"/></svg>

<?xml version="1.0" encoding="utf-8"?>
<!-- Generator: Adobe Illustrator 18.1.1, SVG Export Plug-In . SVG Version: 6.00 Build 0)  -->
<svg version="1.1" xmlns="http://www.w3.org/2000/svg" xmlns:xlink="http://www.w3.org/1999/xlink" x="0px" y="0px"
	 viewBox="0 0 44 36" enable-background="new 0 0 44 36" xml:space="preserve">
<g id="Shape_29_1_" enable-background="new    ">
	<g id="Shape_29">
		<g>
			<path fill-rule="evenodd" clip-rule="evenodd" d="M7,22H1c-0.6,0-1,0.4-1,1v12c0,0.6,0.4,1,1,1h6c0.6,0,1-0.4,1-1V23
				C8,22.4,7.6,22,7,22z M6,34H2V24h4V34z M19,9h-6c-0.6,0-1,0.4-1,1v25c0,0.6,0.4,1,1,1h6c0.6,0,1-0.4,1-1V10C20,9.4,19.6,9,19,9z
				 M18,34h-4V11h4V34z M31,16h-6c-0.6,0-1,0.4-1,1v18c0,0.6,0.4,1,1,1h6c0.6,0,1-0.4,1-1V17C32,16.4,31.6,16,31,16z M30,34h-4V18h4
				V34z"/>
		</g>
	</g>
</g>
<g id="Color_Fill_6_1_" enable-background="new    ">
	<g id="Color_Fill_6">
		<g>
			<path fill-rule="evenodd" clip-rule="evenodd" fill="#44B6F0" d="M43,0h-6c-0.6,0-1,0.4-1,1v34c0,0.6,0.4,1,1,1h6
				c0.6,0,1-0.4,1-1V1C44,0.4,43.6,0,43,0z M42,34h-4V2h4V34z"/>
		</g>
	</g>
</g>
</svg>
